svg/weather/sunset_line.svg

<?xml version="1.0" encoding="UTF-8"?>
<svg width="24px" height="24px" viewBox="0 0 24 24" version="1.1" xmlns="http://www.w3.org/2000/svg" xmlns:xlink="http://www.w3.org/1999/xlink">
    <title>sunset_line</title>
    <g id="页面-1" stroke="none" stroke-width="1" fill="none" fill-rule="evenodd">
        <g id="Weather" transform="translate(-768.000000, 0.000000)" fill-rule="nonzero">
            <g id="sunset_line" transform="translate(768.000000, 0.000000)">
                 <path d="M24,0 L24,24 L0,24 L0,0 L24,0 Z M12.5934901,23.257841 L12.5819402,23.2595131 L12.5108777,23.2950439 L12.4918791,23.2987469 L12.4918791,23.2987469 L12.4767152,23.2950439 L12.4056548,23.2595131 C12.3958229,23.2563662 12.3870493,23.2590235 12.3821421,23.2649074 L12.3780323,23.275831 L12.360941,23.7031097 L12.3658947,23.7234994 L12.3769048,23.7357139 L12.4804777,23.8096931 L12.4953491,23.8136134 L12.4953491,23.8136134 L12.5071152,23.8096931 L12.6106902,23.7357139 L12.6232938,23.7196733 L12.6232938,23.7196733 L12.6266527,23.7031097 L12.609561,23.275831 C12.6075724,23.2657013 12.6010112,23.2592993 12.5934901,23.257841 L12.5934901,23.257841 Z M12.8583906,23.1452862 L12.8445485,23.1473072 L12.6598443,23.2396597 L12.6498822,23.2499052 L12.6498822,23.2499052 L12.6471943,23.2611114 L12.6650943,23.6906389 L12.6699349,23.7034178 L12.6699349,23.7034178 L12.678386,23.7104931 L12.8793402,23.8032389 C12.8914285,23.8068999 12.9022333,23.8029875 12.9078286,23.7952264 L12.9118235,23.7811639 L12.8776777,23.1665331 C12.8752882,23.1545897 12.8674102,23.1470016 12.8583906,23.1452862 L12.8583906,23.1452862 Z M12.1430473,23.1473072 C12.1332178,23.1423925 12.1221763,23.1452606 12.1156365,23.1525954 L12.1099173,23.1665331 L12.0757714,23.7811639 C12.0751323,23.7926639 12.0828099,23.8018602 12.0926481,23.8045676 L12.108256,23.8032389 L12.3092106,23.7104931 L12.3186497,23.7024347 L12.3186497,23.7024347 L12.3225043,23.6906389 L12.340401,23.2611114 L12.337245,23.2485176 L12.337245,23.2485176 L12.3277531,23.2396597 L12.1430473,23.1473072 Z" id="MingCute" fill-rule="nonzero"></path>
                <path d="M12,9.99988 C15.3137,9.99988 18,12.6862 18,15.9999 C18,17.0928 17.7074,18.1176 17.1971,18.9999 L20,18.9999 C20.5523,18.9999 21,19.4476 21,19.9999 C21,20.5522 20.5523,20.9999 20,20.9999 L4,20.9999 C3.44772,20.9999 3,20.5522 3,19.9999 C3,19.4476 3.44772,18.9999 4,18.9999 L6.80311,18.9999 C6.29267,18.1176 6,17.0929 6,15.9999 C6,12.6862 8.68629,9.99988 12,9.99988 Z M12,11.9999 C9.79086,11.9999 8,13.7907 8,15.9999 C8,17.1143 8.45513813,18.1222502 9.19232695,18.8486225 L9.35455,18.9999 L14.6459,18.9999 C15.4777,18.2657 16,17.1939 16,15.9999 C16,13.7907 14.2091,11.9999 12,11.9999 Z M21,14.9999 C21.5523,14.9999 22,15.4476 22,15.9999 C22,16.51275 21.613973,16.9354092 21.1166239,16.9931725 L21,16.9999 L20,16.9999 C19.4477,16.9999 19,16.5522 19,15.9999 C19,15.48705 19.386027,15.0643908 19.8833761,15.0066275 L20,14.9999 L21,14.9999 Z M4,14.9999 C4.55228,14.9999 5,15.4476 5,15.9999 C5,16.51275 4.61395571,16.9354092 4.11662025,16.9931725 L4,16.9999 L3,16.9999 C2.44772,16.9999 2,16.5522 2,15.9999 C2,15.48705 2.38604429,15.0643908 2.88337975,15.0066275 L3,14.9999 L4,14.9999 Z M6.34312,8.92876 L7.05023,9.6358625 C7.44075,10.0264 7.44075,10.6596 7.05023,11.0501 C6.6597,11.4406 6.02654,11.4406 5.6360125,11.0501 L4.92891,10.343 C4.53838,9.95245 4.53838,9.31928 4.92891,8.92876 C5.31943,8.53823 5.9526,8.53823 6.34312,8.92876 Z M17.6569,8.92877 C18.0474,8.53825 18.6805,8.53825 19.0711,8.92877 C19.4315615,9.28925923 19.4592893,9.85648645 19.1542834,10.2487894 L19.0711,10.343 L18.364,11.0501 C17.9734,11.4406 17.3403,11.4406 16.9498,11.0501 C16.5892462,10.6896385 16.5615112,10.1223793 16.8665953,9.730087 L16.9498,9.63588 L17.6569,8.92877 Z M12,1.87988 C12.51285,1.87988 12.9355092,2.26592429 12.9932725,2.76325975 L13,2.87988 L13,5.58566 L13.4142,5.17145 C13.8047,4.78093 14.4379,4.78093 14.8284,5.17145 C15.1888615,5.53193923 15.2165893,6.09916645 14.9115834,6.49145366 L14.8284,6.58566 L12.7071,8.70698 C12.3466385,9.06746923 11.7793793,9.09519917 11.3871027,8.79016982 L11.2929,8.70698 L9.17156,6.58566 C8.78103,6.19514 8.78103,5.56198 9.17156,5.17145 C9.53204,4.81097 10.0992324,4.78324077 10.4915773,5.08826231 L10.5858,5.17145 L11,5.58566 L11,2.87988 C11,2.3276 11.4477,1.87988 12,1.87988 Z" id="形状" fill="#09244B"></path>
            </g>
        </g>
    </g>
</svg>

<svg xmlns="http://www.w3.org/2000/svg" width="24" height="24"><g fill="none" fill-rule="nonzero"><path d="M24 0v24H0V0h24ZM12.593 23.258l-.011.002-.071.035-.02.004-.014-.004-.071-.035c-.01-.004-.019-.001-.024.005l-.004.01-.017.428.005.02.01.013.104.074.015.004.012-.004.104-.074.012-.016.004-.017-.017-.427c-.002-.01-.009-.017-.017-.018Zm.265-.113-.013.002-.185.093-.01.01-.003.011.018.43.005.012.008.007.201.093c.012.004.023 0 .029-.008l.004-.014-.034-.614c-.003-.012-.01-.02-.02-.022Zm-.715.002a.023.023 0 0 0-.027.006l-.006.014-.034.614c0 .012.007.02.017.024l.015-.002.201-.093.01-.008.004-.011.017-.43-.003-.012-.01-.01-.184-.092Z"/><path fill="#09244B" d="M12 10a6 6 0 0 1 5.197 9H20a1 1 0 1 1 0 2H4a1 1 0 1 1 0-2h2.803A6 6 0 0 1 12 10Zm0 2a4 4 0 0 0-2.808 6.849l.163.15h5.29A4 4 0 0 0 12 12Zm9 3a1 1 0 0 1 .117 1.993L21 17h-1a1 1 0 0 1-.117-1.993L20 15h1ZM4 15a1 1 0 0 1 .117 1.993L4 17H3a1 1 0 0 1-.117-1.993L3 15h1Zm2.343-6.071.707.707a1 1 0 0 1-1.414 1.414l-.707-.707a1 1 0 0 1 1.414-1.414Zm11.314 0a1 1 0 0 1 1.497 1.32l-.083.094-.707.707a1 1 0 0 1-1.497-1.32l.083-.094.707-.707ZM12 1.879a1 1 0 0 1 .993.884L13 2.88v2.706l.414-.415a1 1 0 0 1 1.498 1.32l-.084.095-2.12 2.121a1 1 0 0 1-1.32.083l-.095-.083-2.121-2.121a1 1 0 0 1 1.32-1.498l.094.083.414.415V2.88a1 1 0 0 1 1-1Z"/></g></svg>
